modules/editor/web/images/tool-icons/action.svg

<?xml version="1.0" encoding="utf-8"?>

<!--
 ~   Copyright (c) WSO2 Inc. (http://wso2.com) All Rights Reserved.
 ~
 ~   Licensed under the Apache License, Version 2.0 (the "License");
 ~   you may not use this file except in compliance with the License.
 ~   You may obtain a copy of the License at
 ~
 ~        http://www.apache.org/licenses/LICENSE-2.0
 ~
 ~   Unless required by applicable law or agreed to in writing, software
 ~   distributed under the License is distributed on an "AS IS" BASIS,
 ~   WITHOUT WARRANTIES OR CONDITIONS OF ANY KIND, either express or implied.
 ~   See the License for the specific language governing permissions and
 ~   limitations under the License.
-->

<svg version="1.1" id="action" xmlns="http://www.w3.org/2000/svg" xmlns:xlink="http://www.w3.org/1999/xlink" x="0px" y="0px"
	 viewBox="0 0 14 14" style="enable-background:new 0 0 14 14;" xml:space="preserve">
<path d="M7.9096193,0.5009314l0.1342621,1.1273363l0.0392609,0.32963l0.3190193,0.0917599
	c0.4033098,0.1159999,0.7910604,0.28018,1.1524801,0.4879501L9.848032,2.7062776l0.2656202-0.2096901l0.8820505-0.6963191
	l1.2440729,1.2388873l-0.7036238,0.8939219l-0.2079601,0.2642l0.1662397,0.2922602
	c0.1975203,0.34726,0.3554306,0.7217498,0.4693499,1.11307l0.092,0.31604l0.3266706,0.0404301l1.1129751,0.1377201
	l0.0036516,1.7586145l-1.0673571,0.1274753l-0.3411798,0.0407395l-0.08426,0.3331108
	c-0.1065197,0.4210796-0.2665901,0.8262691-0.47575,1.20432l-0.1624298,0.2935791l0.2101002,0.26159l0.6610079,0.8229733
	l-1.2254677,1.2592764l-0.8278103-0.6363192L9.9177217,11.355998l-0.2911301,0.1722698
	c-0.4119701,0.2437696-0.8480701,0.42805-1.2961798,0.5477095l-0.32376,0.0864506L7.963562,12.4947577l-0.1303372,1.0052404
	H6.0821805l-0.1142087-0.99827l-0.0385799-0.3372402l-0.3276801-0.0886002
	c-0.4448299-0.1202698-0.87046-0.2986202-1.26509-0.5301104l-0.29322-0.1719999l-0.2677798,0.2094202l-0.7895811,0.6174936
	l-1.2384492-1.2446041l0.6339802-0.7978592l0.20856-0.2624702l-0.1636-0.2925997
	c-0.21609-0.3864708-0.38028-0.79002-0.4880099-1.19942L1.8515518,8.0732574l-0.3394899-0.03901L0.5118218,7.9193125V6.1645598
	l1.0204301-0.1318822l0.3321-0.0429301l0.08674-0.3234301c0.1118098-0.4168997,0.2830299-0.8266997,0.5089101-1.21803
	l0.1698198-0.29421L2.4188519,3.8878176L1.7520889,3.0463433l1.23587-1.2476645l0.8669529,0.6787188l0.2629299,0.2058399
	l0.2908602-0.164C4.798912,2.2992177,5.216002,2.1306777,5.6483817,2.0182776l0.3292999-0.08561l0.0412202-0.3377399
	l0.1330566-1.0903072L7.9096193,0.5009314 M6.9964819,10.2482576c1.7926302,0,3.2510395-1.4584103,3.2510395-3.25104
	c0-1.7926202-1.4584093-3.25103-3.2510395-3.25103c-1.7926202,0-3.25103,1.4584098-3.25103,3.25103
	C3.7454519,8.7898474,5.2038617,10.2482576,6.9964819,10.2482576 M8.3534918-0.0000024l-2.64434,0.00555l-0.1865697,1.52881
	c-0.4764304,0.12385-0.9309602,0.30774-1.3594503,0.5493399L2.9458418,1.1307076l-1.86095,1.8787099l0.94207,1.18892
	c-0.24289,0.4208002-0.4328099,0.86868-0.5588,1.33846l-1.45634,0.18822v2.64013l1.4431599,0.1658297
	c0.12147,0.4616108,0.30371,0.9022903,0.53513,1.3161907l-0.91078,1.1462097l1.8652298,1.8745003l1.1390803-0.8908205
	c0.43507,0.2552099,0.89991,0.4496498,1.3875699,0.5815001l0.1649098,1.4414406h2.6364603l0.1868296-1.4409504
	c0.5001602-0.1335602,0.9761705-0.3367805,1.4218006-0.6004705l1.1805592,0.9074707l1.8442402-1.8951206l-0.9379797-1.1678095
	c0.2308598-0.4172602,0.4059601-0.8611698,0.5229797-1.32376l1.5089903-0.1802197l-0.0054903-2.6444006l-1.5506601-0.1918797
	c-0.12397-0.4258599-0.2958994-0.83567-0.5148096-1.22053l0.9787998-1.24352l-1.8737097-1.8659l-1.2302904,0.97123
	C9.4055614,1.8751676,8.9813519,1.6959776,8.5403719,1.5691376L8.3534918-0.0000024L8.3534918-0.0000024z M6.9964819,9.7482576
	c-1.51933,0-2.75103-1.2316999-2.75103-2.75104s1.2316899-2.75103,2.75103-2.75103s2.7510395,1.2316899,2.7510395,2.75103
	S8.5158215,9.7482576,6.9964819,9.7482576L6.9964819,9.7482576z"/>
</svg>

<?xml version="1.0" encoding="utf-8"?>

<!--
 ~   Copyright (c) WSO2 Inc. (http://wso2.com) All Rights Reserved.
 ~
 ~   Licensed under the Apache License, Version 2.0 (the "License");
 ~   you may not use this file except in compliance with the License.
 ~   You may obtain a copy of the License at
 ~
 ~        http://www.apache.org/licenses/LICENSE-2.0
 ~
 ~   Unless required by applicable law or agreed to in writing, software
 ~   distributed under the License is distributed on an "AS IS" BASIS,
 ~   WITHOUT WARRANTIES OR CONDITIONS OF ANY KIND, either express or implied.
 ~   See the License for the specific language governing permissions and
 ~   limitations under the License.
-->

<svg version="1.1" id="action" xmlns="http://www.w3.org/2000/svg" xmlns:xlink="http://www.w3.org/1999/xlink" x="0px" y="0px"
	 viewBox="0 0 14 14" style="enable-background:new 0 0 14 14;" xml:space="preserve">
<path d="M7.9,0.5L8,1.6v0.3L8.4,2c0.4,0.1,0.8,0.3,1.2,0.5l0.3,0.2l0.3-0.2L11,1.8L12.2,3l-0.7,0.9l-0.2,0.3l0.2,0.3
	c0.2,0.3,0.4,0.7,0.5,1.1l0.1,0.3h0.3L13.5,6v1.8L12.4,8h-0.3L12,8.4c-0.1,0.4-0.3,0.8-0.5,1.2l-0.2,0.3l0.2,0.3l0.7,0.8L11,12.2
	l-0.8-0.6l-0.3-0.2l-0.3,0.2c-0.4,0.2-0.8,0.4-1.3,0.5L8,12.2v0.3l-0.1,1H6.1l-0.1-1v-0.3l-0.3-0.1c-0.4-0.1-0.9-0.3-1.3-0.5L4,11.4
	l-0.3,0.2L3,12.2L1.7,11l0.6-0.8l0.2-0.3L2.4,9.6C2.2,9.2,2,8.8,1.9,8.4V8.1L1.5,8l-1-0.1V6.2l1-0.1h0.3L2,5.7
	c0.1-0.4,0.3-0.8,0.5-1.2l0.2-0.3L2.4,3.9L1.8,3L3,1.8l0.9,0.7l0.3,0.2l0.3-0.2C4.8,2.3,5.2,2.1,5.6,2L6,1.9V1.6l0.1-1.1L7.9,0.5
	 M7,10.2c1.8,0,3.3-1.5,3.3-3.3S8.8,3.6,7,3.6C5.2,3.7,3.7,5.2,3.7,7S5.2,10.2,7,10.2 M8.4,0H5.7L5.5,1.5C5,1.7,4.6,1.8,4.2,2.1
	L3,1.1L1.1,3L2,4.2C1.8,4.6,1.6,5.1,1.5,5.5L0,5.7v2.6l1.4,0.2C1.6,9,1.8,9.4,2,9.8L1.1,11L3,12.9L4.1,12c0.4,0.3,0.9,0.4,1.4,0.6
	L5.6,14h2.6l0.2-1.4c0.5-0.1,1-0.3,1.4-0.6l1.2,0.9l1.8-1.9L12,9.8c0.2-0.4,0.4-0.9,0.5-1.3L14,8.3V5.7l-1.6-0.2
	c-0.1-0.4-0.3-0.8-0.5-1.2l1-1.2l-1.9-2l-1.2,1C9.4,1.9,9,1.7,8.5,1.6L8.4,0L8.4,0z M7,9.7C5.5,9.7,4.2,8.5,4.2,7S5.5,4.2,7,4.2
	S9.7,5.5,9.7,7S8.5,9.7,7,9.7L7,9.7z"/>
</svg>
